public/assets/images/barcodeOutline.svg

<svg width="25" height="24" viewBox="0 0 25 24" fill="none" xmlns="http://www.w3.org/2000/svg">
<path d="M7.5 3H4.5V6H2.5V1H7.5V3ZM22.5 6V1H17.5V3H20.5V6H22.5ZM7.5 21H4.5V18H2.5V23H7.5V21ZM20.5 18V21H17.5V23H22.5V18H20.5ZM17.5 6H7.5V18H17.5V6ZM19.5 18C19.5 19.1 18.6 20 17.5 20H7.5C6.4 20 5.5 19.1 5.5 18V6C5.5 4.9 6.4 4 7.5 4H17.5C18.6 4 19.5 4.9 19.5 6V18ZM15.5 8H9.5V10H15.5V8ZM15.5 11H9.5V13H15.5V11ZM15.5 14H9.5V16H15.5V14Z" fill="var(--ion-color-primary)"/>
</svg>

<svg width="25" height="24" fill="none" xmlns="http://www.w3.org/2000/svg"><path d="M7.5 3h-3v3h-2V1h5v2zm15 3V1h-5v2h3v3h2zm-15 15h-3v-3h-2v5h5v-2zm13-3v3h-3v2h5v-5h-2zm-3-12h-10v12h10V6zm2 12c0 1.1-.9 2-2 2h-10c-1.1 0-2-.9-2-2V6c0-1.1.9-2 2-2h10c1.1 0 2 .9 2 2v12zm-4-10h-6v2h6V8zm0 3h-6v2h6v-2zm0 3h-6v2h6v-2z" fill="var(--ion-color-primary)"/></svg>
